X: 51
T: Unknown Polka
S:A flute player
N:Nigel rehashed Emmanuel's effort
S:Nigel Gatherer <gatherer@ARGONET.CO.UK> irtrad-l 2001-11-26
Z:Emmanuel Mann
M:2/4
L:1/8
R:Polka
K:G
e>g ed|G/A/B/d/ e/c/A/F/|GG/A/ ~Bd|c/B/A/G/ ~Ad/e/|
f>g e/f/f/e/|dg/f/ e/d/c|B/c/d G/F/G/A/|BA A/B/c/d/:|
~a3 g|e2 ag|e2 d2|e/c/A/F/ GG/A/|
~B2 d2|g/f/e/d/ e/f/g/b/|~a3 g|e2 ag|
e2 de/c/|A2 B/c/d|G/F/G/A/ BA|A2- A2|
~a3 g|ea/g/ a/g/e/d/|e/B/c/A/ GG/A/|
~B2 d2|g/f/e/d/ G/A/B/d/|e>g ed|G/A/c/d/ e/d/c/A/|
B/c/d G/F/G/A/ BA|A2- A2||
d/e/f/g/ ag|f/e/d G/A/c/d/|e/d/g/d/ e/d/c/A/|d/e/f/g/ ag|
f/e/d c/G/c/d/|e/d/c/B/ B/A/G|AB d2|G/F/G/A/ BA|A2- A2:|
%%sep 1 1 500
